X:491
T:To The Color
S:Bruce & Emmett's Drummers and Fifers Guide (1862), p. 49
M:3/8
L:1/8
K:G
%%MIDI program 72
%%MIDI transpose 8
%%MIDI ratio 3 1
BBc|d2 g/e/|dd e/c/|BB G/A/|BBc|d2 g/e/|d/e/d/c/B/A/|G2z||
